usr/share/icons/biglinux-icons-material-dark/symbolic/status/status-privileged-symbolic.svg

<svg width="16" height="16" version="1.1" xmlns="http://www.w3.org/2000/svg">
 <path d="m4.5 3a4.5 4.5 0 0 0-4.5 4.5 4.5 4.5 0 0 0 4.5 4.5 4.5 4.5 0 0 0 4.4648-4h3.0352v3h1v-3h1v3h1v-3h1v-1h-7.0293a4.5 4.5 0 0 0-4.4707-4zm0 1a3.5 3.5 0 0 1 3.5 3.5 3.5 3.5 0 0 1-3.5 3.5 3.5 3.5 0 0 1-3.5-3.5 3.5 3.5 0 0 1 3.5-3.5z" fill="#dedede" stop-color="#000000" style="paint-order:stroke fill markers"/>
</svg>

<svg xmlns="http://www.w3.org/2000/svg" width="16" height="16">
<path fill="#363636" d="M4.5 3A4.5 4.5 0 0 0 0 7.5 4.5 4.5 0 0 0 4.5 12a4.5 4.5 0 0 0 4.465-4H12v3h1V8h1v3h1V8h1V7H8.97A4.5 4.5 0 0 0 4.5 3m0 1A3.5 3.5 0 0 1 8 7.5 3.5 3.5 0 0 1 4.5 11 3.5 3.5 0 0 1 1 7.5 3.5 3.5 0 0 1 4.5 4" style="paint-order:stroke fill markers"/>
</svg>
